packages/core/src/svgs/husd.svg

<svg width="24" height="24" viewBox="0 0 24 24" fill="none" xmlns="http://www.w3.org/2000/svg">
<g clip-path="url(#clip0_31_11625)">
<path d="M0 0H24V24H0V0Z" fill="#1A61F0"/>
<path d="M17.1429 18.8574H14.5715V14.5202C14.5715 13.8251 13.9466 13.2859 13.2262 13.2859H9.46889C8.02718 13.2859 6.85718 12.1331 6.85718 10.7424V5.14435H9.42861V9.48278C9.42861 10.1775 10.0535 10.7145 10.7739 10.7145H14.5299C15.972 10.7158 17.1403 11.8699 17.1416 13.2606L17.1429 18.8574ZM9.42861 18.8574H6.85718V14.5716C8.29932 14.5716 9.42861 15.7545 9.42861 17.1461V18.8574ZM14.5715 5.14307H17.1429V9.42878C15.6995 9.42878 14.5715 8.24721 14.5715 6.85692V5.14307Z" fill="white"/>
</g>
<defs>
<clipPath id="clip0_31_11625">
<rect width="24" height="24" fill="white"/>
</clipPath>
</defs>
</svg>

<svg xmlns="http://www.w3.org/2000/svg" width="24" height="24" fill="none" viewBox="0 0 24 24"><g clip-path="url(#a)"><path fill="#1A61F0" d="M0 0h24v24H0z"/><path fill="#fff" d="M17.143 18.857H14.57V14.52c0-.695-.624-1.234-1.345-1.234H9.47c-1.442 0-2.612-1.153-2.612-2.544V5.144H9.43v4.339c0 .694.624 1.231 1.345 1.231h3.756c1.442.002 2.61 1.156 2.612 2.547zm-7.714 0H6.857v-4.285a2.58 2.58 0 0 1 2.572 2.574zm5.143-13.714h2.57V9.43a2.576 2.576 0 0 1-2.57-2.572z"/></g><defs><clipPath id="a"><path fill="#fff" d="M0 0h24v24H0z"/></clipPath></defs></svg>
